!!!OTL: Wider Papst und Pfaffen
!!!ARE: Europa, Mitteleuropa, Deutschland
!!!SCT: A0633
!!!YEM: Copyright 1995, estate of Helmut Schaffrath.
**kern
*ICvox
*Ivox
*M6/2
*k[]
*C:
{2cc
=1
1cc
2dd
1cc
2g
=2
1cc
2dd
1cc}
{2g
=3
1cc
2dd
1cc
2g
=4
1cc
2dd
1cc}
{2cc
=5
1g
2a
1b-
2a
=6
1g
2f
1g}
{2g
=7
1f
2f
1g
2g
=8
1f
2f
1g}
{2g
=9
1f
2f
1g
2g
=10
1f
2f
1g}
{2g
=11
1g
2f
2e
1g
=12
1.e
1c}
{2c
=13
1c
2c
1f
2f
=14
1c
2c
1f}
{2f
=15
1c
2c
1f
2f
=16
1c
2c
1f}
{2f
=17
1g
2b-
1a
2g
=18
1a
2b-
1cc}
{2g
=19
1g
2f
1e
2g
=20
1.e
1c}
==
!!!AGN: Romanze, Ballade, Lied, religioeses Lied
!! Dresdner Cod M. 53.
!!!ONB: ESAC (Essen Associative Code) Database: ALTDEU
!!!AMT: compound duple
!!!AIN: vox
!!!EED: Helmut Schaffrath
!!!EEV: 1.0
*-
